!!!SOCIAL_FUNCTION:	songs of war
!!!PDT:	1913
!!!OTL: No_44_Song_of_the_Peace_Pact.krn
!!!REG: Great_Lakes
!!!LANG: Non-Tone
!!!LING_GROUP: Algonquin
**kern	**kern
*staff2	*staff1
=1-	=1-
*clefF4	*clefG2
*k[b-e-]	*k[b-e-]
*M3/4	*M3/4
8GG/L	2g/
8GG/J	.
8GG/L	.
8GG/J	.
8GG/L	4b-\
8GG/J	.
=2	=2
2.r	(2g/
.	4d/)
=3	=3
2.r	2g/
.	4f/
=4	=4
2.r	2.d/
=5	=5
2.r	4d/
.	4d/
.	4d/
*	*clefF4
=6	=6
2.r	4d\
.	4d\
.	(8c\L
.	8B-\J)
=7	=7
2.r	2c\
.	4B-\
=8	=8
2.r	2.G\
=9	=9
2.r	2G\
.	4G\
=10	=10
2.r	(2G\
.	4D\)
=11	=11
2.r	2G\
.	4F\
=12	=12
2.r	2.D\
==	==
*-	*-
